Sources/FrostedUI/Resources/Icons.xcassets/couponActive12.imageset/coupon-active-12.svg

<svg width="12" height="12" viewBox="0 0 12 12" fill="none" xmlns="http://www.w3.org/2000/svg" data-fui-icon="true">
  <path
    d="M3.99707 0C4.44596 0 4.78772 0.255371 4.97852 0.552734L5.05078 0.681641L5.12598 0.813477C5.31942 1.10514 5.64219 1.28906 6 1.28906C6.40898 1.28906 6.77265 1.04834 6.94922 0.681641L7.02148 0.552734C7.21228 0.255372 7.55404 0 8.00293 0H9.5C10.3284 2.57704e-07 11 0.671573 11 1.5V10.5C11 11.3284 10.3284 12 9.5 12H8.00293C7.49013 12 7.11718 11.6668 6.94922 11.3184C6.77265 10.9517 6.40898 10.7109 6 10.7109C5.59102 10.7109 5.22735 10.9517 5.05078 11.3184C4.88282 11.6668 4.50987 12 3.99707 12H2.5C1.67157 12 1 11.3284 1 10.5V1.5C1 0.671573 1.67157 0 2.5 0H3.99707ZM2.5 10.5H3.78809C4.22837 9.73429 5.04982 9.21094 6 9.21094C6.95018 9.21094 7.77163 9.73429 8.21191 10.5H9.5V1.5H8.21191C7.77163 2.26571 6.95018 2.78906 6 2.78906C5.04982 2.78906 4.22837 2.26571 3.78809 1.5H2.5V10.5ZM7.34473 3.59473C7.63762 3.30183 8.11238 3.30183 8.40527 3.59473C8.69817 3.88762 8.69817 4.36238 8.40527 4.65527L4.65527 8.40527C4.36238 8.69817 3.88762 8.69817 3.59473 8.40527C3.30183 8.11238 3.30183 7.63762 3.59473 7.34473L7.34473 3.59473ZM7.75 6.75C8.16421 6.75 8.5 7.08579 8.5 7.5C8.5 7.91421 8.16421 8.25 7.75 8.25C7.33579 8.25 7 7.91421 7 7.5C7 7.08579 7.33579 6.75 7.75 6.75ZM4.25 3.75C4.66421 3.75 5 4.08579 5 4.5C5 4.91421 4.66421 5.25 4.25 5.25C3.83579 5.25 3.5 4.91421 3.5 4.5C3.5 4.08579 3.83579 3.75 4.25 3.75Z"
    fill="currentColor"
  />
</svg>

<svg xmlns="http://www.w3.org/2000/svg" width="12" height="12" fill="none" data-fui-icon="true" viewBox="0 0 12 12"><path fill="currentColor" d="M3.997 0c.449 0 .79.255.982.553l.072.129.075.131c.193.292.516.476.874.476.409 0 .773-.24.95-.607l.071-.13C7.212.256 7.554 0 8.003 0H9.5A1.5 1.5 0 0 1 11 1.5v9A1.5 1.5 0 0 1 9.5 12H8.003c-.513 0-.886-.333-1.054-.682A1.06 1.06 0 0 0 6 10.711c-.409 0-.773.24-.95.607-.167.349-.54.682-1.053.682H2.5A1.5 1.5 0 0 1 1 10.5v-9A1.5 1.5 0 0 1 2.5 0zM2.5 10.5h1.288A2.55 2.55 0 0 1 6 9.21c.95 0 1.772.524 2.212 1.29H9.5v-9H8.212A2.55 2.55 0 0 1 6 2.79 2.55 2.55 0 0 1 3.788 1.5H2.5zm4.845-6.905a.75.75 0 1 1 1.06 1.06l-3.75 3.75a.75.75 0 1 1-1.06-1.06zM7.75 6.75a.75.75 0 1 1 0 1.5.75.75 0 0 1 0-1.5m-3.5-3a.75.75 0 1 1 0 1.5.75.75 0 0 1 0-1.5"/></svg>
